src/icons/main-add.svg

<svg enable-background="new 0 0 14 14" viewBox="0 0 14 14" xmlns="http://www.w3.org/2000/svg"><path d="m7 0c-3.9 0-7 3.1-7 7s3.1 7 7 7 7-3.1 7-7-3.1-7-7-7zm0 12.6c-3.1 0-5.6-2.5-5.6-5.6s2.5-5.6 5.6-5.6 5.6 2.5 5.6 5.6-2.5 5.6-5.6 5.6zm3.5-6.3h-2.8v-2.8c0-.4-.3-.7-.7-.7s-.7.3-.7.7v2.8h-2.8c-.4 0-.7.3-.7.7s.3.7.7.7h2.8v2.8c0 .4.3.7.7.7s.7-.3.7-.7v-2.8h2.8c.4 0 .7-.3.7-.7s-.3-.7-.7-.7z" fill="#4d5969"/></svg>

<?xml version="1.0" encoding="utf-8"?>
<!-- Generator: Adobe Illustrator 20.1.0, SVG Export Plug-In . SVG Version: 6.00 Build 0)  -->
<svg version="1.1" id="Layer_1" xmlns="http://www.w3.org/2000/svg" xmlns:xlink="http://www.w3.org/1999/xlink" x="0px" y="0px"
	 viewBox="0 0 14 14" style="enable-background:new 0 0 14 14;" xml:space="preserve">
<style type="text/css">
	.st0{fill:#4D5969;}
</style>
<title>HDL/Icon/Standard/add</title>
<desc>Created with Sketch.</desc>
<g id="Colors">
	<g id="Main-Icons" transform="translate(-122.000000, -1065.000000)">
		<g id="Add" transform="translate(101.000000, 1047.000000)">
			<g id="HDL_x2F_Icon_x2F_Standard_x2F_add" transform="translate(21.000000, 18.000000)">
				<path id="Shape" class="st0" d="M7,0C3.1,0,0,3.1,0,7s3.1,7,7,7s7-3.1,7-7S10.9,0,7,0z M7,12.6c-3.1,0-5.6-2.5-5.6-5.6
					S3.9,1.4,7,1.4s5.6,2.5,5.6,5.6S10.1,12.6,7,12.6z M10.5,6.3H7.7V3.5c0-0.4-0.3-0.7-0.7-0.7S6.3,3.1,6.3,3.5v2.8H3.5
					C3.1,6.3,2.8,6.6,2.8,7s0.3,0.7,0.7,0.7h2.8v2.8c0,0.4,0.3,0.7,0.7,0.7s0.7-0.3,0.7-0.7V7.7h2.8c0.4,0,0.7-0.3,0.7-0.7
					S10.9,6.3,10.5,6.3z"/>
			</g>
		</g>
	</g>
</g>
</svg>
